public/img/streams-format-1.svg

<svg width="169" height="169" viewBox="0 0 169 169" fill="none" xmlns="http://www.w3.org/2000/svg">
<g clip-path="url(#clip0)">
<path d="M127.353 108.768L135.563 94.5473C138.963 88.6571 136.945 81.1254 131.055 77.7247L105.031 62.7C103.692 61.9267 101.98 62.3999 101.209 63.7403C100.27 65.3714 99.6229 67.0913 99.2459 68.84L48.88 39.7613C44.8961 37.4611 39.6746 38.7936 37.4483 42.8194C35.2892 46.7238 36.6492 51.66 40.5292 53.9001L47.6394 58.0052L23.0094 100.666L87 137.611L94.11 141.715C100.001 145.117 107.532 143.098 110.933 137.208L118.473 141.561C120.199 142.558 122.405 141.966 123.402 140.241L136.214 118.05C137.21 116.324 136.619 114.117 134.893 113.121L127.353 108.768Z" fill="#FFDCC8"/>
<path d="M130.917 39.7239L85.824 13.6898C80.6137 10.6816 73.9278 12.4731 70.9197 17.6832L20.2555 105.436C17.2475 110.646 19.0392 117.332 24.2492 120.34L69.3417 146.375C74.5518 149.383 81.238 147.591 84.246 142.381L134.91 54.6281C137.918 49.4181 136.127 42.732 130.917 39.7239V39.7239Z" fill="#5766CB"/>
<path d="M84.2447 142.382L134.909 54.6283C137.917 49.4183 136.125 42.7321 130.915 39.7241L108.369 26.707L46.7942 133.358L69.3405 146.375C74.5505 149.383 81.2367 147.592 84.2447 142.382Z" fill="#3342AA"/>
<path d="M126.939 45.7603L123.37 43.6999L121.31 47.2687C118.179 52.691 111.246 54.5488 105.823 51.4183L88.2426 41.268C82.8203 38.1374 80.9625 31.204 84.0931 25.7817L86.1535 22.2129L82.5847 20.1524C80.6168 19.0163 78.0913 19.6928 76.9552 21.6606L26.7171 108.675C25.581 110.643 26.2579 113.169 28.2257 114.305L72.58 139.913C74.5478 141.049 77.0734 140.372 78.2095 138.405L128.448 51.3898C129.584 49.422 128.907 46.8965 126.939 45.7603Z" fill="#9DC6FB"/>
<path d="M78.2093 138.405L128.447 51.3904C129.584 49.4226 128.907 46.8971 126.939 45.761L123.37 43.7005L121.31 47.2694C118.179 52.6917 111.246 54.5495 105.823 51.4189L97.0329 46.3438L50.4026 127.11L72.5797 139.914C74.5476 141.05 77.0731 140.373 78.2093 138.405Z" fill="#BED8FB"/>
<path d="M23.0095 100.667C26.9362 102.934 31.9573 101.588 34.2244 97.6617C36.4915 93.735 35.1461 88.7139 31.2194 86.4468C27.2926 84.1796 22.2715 85.525 20.0044 89.4518C17.7373 93.3785 19.0827 98.3996 23.0095 100.667Z" fill="#FFC5BB"/>
<path d="M48.3173 77.3571C52.2422 79.6231 57.2666 78.2768 59.5325 74.3522C61.7984 70.4276 60.4521 65.4031 56.5272 63.1371L42.3073 54.9272C38.3824 52.6612 33.3582 54.0076 31.0923 57.9323C28.8264 61.8569 30.1725 66.8812 34.0973 69.1472L37.6524 71.1997C33.7276 68.9337 28.7034 70.2801 26.4375 74.2048C24.1716 78.1294 25.5179 83.1538 29.4425 85.4197L40.1076 91.5772C44.0325 93.8432 49.0569 92.4969 51.3228 88.5723C53.5887 84.6477 52.2422 79.6231 48.3173 77.3571Z" fill="#FFC5BB"/>
<path d="M61.2181 123.837L47.8311 116.108C46.1055 115.111 45.5142 112.905 46.5105 111.179C47.5068 109.454 49.7134 108.862 51.439 109.859L64.826 117.588C66.5515 118.584 67.1428 120.791 66.1465 122.516C65.1503 124.242 62.9436 124.833 61.2181 123.837Z" fill="#BED8FB"/>
<path d="M66.1448 122.516C67.1411 120.79 66.5498 118.583 64.8242 117.587L58.1309 113.723L54.523 119.972L61.2163 123.836C62.9419 124.832 65.1484 124.241 66.1448 122.516Z" fill="#00BDCD"/>
<path d="M129.999 104.185L135.563 94.5472C138.964 88.657 136.946 81.1253 131.055 77.7246L105.032 62.6999C103.698 61.9296 101.99 62.387 101.22 63.7214C96.3305 72.1902 99.2425 83.0578 107.711 87.9472L113.683 91.3948L87.0001 137.61L94.1103 141.715C100.001 145.116 107.532 143.098 110.933 137.208L118.473 141.561C120.199 142.558 122.406 141.966 123.402 140.241L138.86 113.467C139.856 111.741 139.265 109.535 137.539 108.538L129.999 104.185Z" fill="#FFC5BB"/>
<path d="M48.3161 77.3581L37.651 71.2007C33.7262 68.9347 28.7019 70.2811 26.4361 74.2057C24.1702 78.1303 25.5165 83.1547 29.4411 85.4206L40.1062 91.5781C44.031 93.8441 49.0555 92.4978 51.3213 88.5732C53.5872 84.6486 52.2409 79.6242 48.3161 77.3581Z" fill="#FFADAD"/>
<path d="M103.418 109.172L86.998 137.612L94.108 141.717C99.9988 145.118 107.53 143.1 110.931 137.209L118.471 141.563C120.197 142.559 122.403 141.968 123.4 140.242L131.858 125.592L103.418 109.172Z" fill="#FFADAD"/>
</g>
<defs>
<clipPath id="clip0">
<rect width="123.15" height="123.15" fill="white" transform="translate(62.1543 0.0253906) rotate(30)"/>
</clipPath>
</defs>
</svg>

<svg width="169" height="169" fill="none" xmlns="http://www.w3.org/2000/svg"><g clip-path="url(#clip0)"><path d="M127.353 108.768l8.21-14.22c3.4-5.89 1.382-13.423-4.508-16.823L105.031 62.7a2.8 2.8 0 00-3.822 1.04 17.667 17.667 0 00-1.963 5.1L48.88 39.761c-3.984-2.3-9.205-.967-11.432 3.058A8.213 8.213 0 0040.53 53.9l7.11 4.105-24.63 42.661L87 137.611l7.11 4.104c5.891 3.402 13.422 1.383 16.823-4.507l7.54 4.353a3.608 3.608 0 004.929-1.32l12.812-22.191a3.608 3.608 0 00-1.321-4.929l-7.54-4.353z" fill="#FFDCC8"/><path d="M130.917 39.724L85.824 13.69c-5.21-3.008-11.896-1.217-14.904 3.993l-50.665 87.753c-3.008 5.21-1.216 11.896 3.994 14.904l45.093 26.035c5.21 3.008 11.896 1.216 14.904-3.994l50.664-87.753c3.008-5.21 1.217-11.896-3.993-14.904z" fill="#5766CB"/><path d="M84.245 142.382l50.664-87.754c3.008-5.21 1.216-11.896-3.994-14.904l-22.546-13.017-61.575 106.651 22.547 13.017c5.21 3.008 11.896 1.217 14.904-3.993z" fill="#3342AA"/><path d="M126.939 45.76l-3.569-2.06-2.06 3.569c-3.131 5.422-10.064 7.28-15.487 4.15l-17.58-10.151c-5.423-3.13-7.28-10.064-4.15-15.486l2.06-3.57-3.568-2.06a4.126 4.126 0 00-5.63 1.509l-50.238 87.014a4.127 4.127 0 001.509 5.63l44.354 25.608a4.127 4.127 0 005.63-1.508l50.238-87.015a4.126 4.126 0 00-1.509-5.63z" fill="#9DC6FB"/><path d="M78.21 138.405l50.237-87.015a4.125 4.125 0 00-1.508-5.629l-3.569-2.06-2.06 3.568c-3.131 5.423-10.064 7.28-15.487 4.15l-8.79-5.075-46.63 80.766 22.177 12.804a4.126 4.126 0 005.63-1.509z" fill="#BED8FB"/><path d="M23.01 100.667a8.21 8.21 0 108.209-14.222 8.21 8.21 0 00-8.21 14.222z" fill="#FFC5BB"/><path d="M48.317 77.357a8.213 8.213 0 0011.215-3.005 8.213 8.213 0 00-3.005-11.215l-14.22-8.21a8.213 8.213 0 00-11.215 3.005 8.213 8.213 0 003.005 11.215l3.555 2.053a8.213 8.213 0 00-11.215 3.005 8.213 8.213 0 003.005 11.215l10.666 6.157a8.213 8.213 0 0011.215-3.005 8.213 8.213 0 00-3.006-11.215z" fill="#FFC5BB"/><path d="M61.218 123.837l-13.387-7.729a3.609 3.609 0 013.608-6.249l13.387 7.729a3.608 3.608 0 11-3.608 6.249z" fill="#BED8FB"/><path d="M66.145 122.516a3.608 3.608 0 00-1.32-4.929l-6.694-3.864-3.608 6.249 6.693 3.864a3.609 3.609 0 004.929-1.32z" fill="#00BDCD"/><path d="M129.999 104.185l5.564-9.638c3.401-5.89 1.383-13.422-4.508-16.822L105.032 62.7a2.791 2.791 0 00-3.812 1.021c-4.89 8.47-1.977 19.337 6.491 24.226l5.972 3.448L87 137.61l7.11 4.105c5.891 3.401 13.422 1.383 16.823-4.507l7.54 4.353a3.608 3.608 0 004.929-1.32l15.458-26.774a3.609 3.609 0 00-1.321-4.929l-7.54-4.353z" fill="#FFC5BB"/><path d="M48.316 77.358l-10.665-6.157a8.213 8.213 0 00-11.215 3.005 8.213 8.213 0 003.005 11.215l10.665 6.157a8.213 8.213 0 0011.215-3.005 8.213 8.213 0 00-3.005-11.215zm55.102 31.814l-16.42 28.44 7.11 4.105c5.89 3.401 13.422 1.383 16.823-4.508l7.54 4.354a3.609 3.609 0 004.929-1.321l8.458-14.65-28.44-16.42z" fill="#FFADAD"/></g><defs><clipPath id="clip0"><path fill="#fff" transform="rotate(30 31.03 115.994)" d="M0 0h123.15v123.15H0z"/></clipPath></defs></svg>
